!! 00000] TT[WS
!!!OTL: Sibao langong
!!!ARE: Asia, China,ÿShanxi Ningwu
!! Ethnic Group: Han
!! WI, 67
!!!SCT: J0079
!!!YEM: Copyright 1995, estate of Helmut Schaffrath.
**kern
*ICvox
*Ivox
*M2/4
*k[f#]
*G:
{16a
8b
16b
16a
8a
16b
=1
8.dd
16e
4g
=2
16a
8b
16b
16a
8a
16g
=3
8.a
16e
4d}
=4
{8d
16d
16e
8a
16a
16g
=5
8e
16e
16d
16e
16f#
8e
=6
16a
8a
16b
8dd
16r
16e
=7
16d
16B
16d
16e
8g
16f#
16e
=8
16d
8e
16B
4A}
==
!!!AGN: Xiaodiao. Qingge
!!!ONB: ESAC (Essen Associative Code) Database: CHINA
!!!AMT: simple duple
!!!AIN: vox
!!!EED: Helmut Schaffrath
!!!EEV: 1.0
*-
